X: 021
T: The Milkmaids of Blantyre
R: reel
B: Robert Bremner "A Collection of Scots Reels or Country Dances" p.2 #1
S: http://imslp.org/wiki/A_Collection_of_Scots_Reels_or_Country_Dances_(Bremner,_Robert)
Z: 2013 John Chambers <jc:trillian.mit.edu>
M: C|
L: 1/8
K: G
% - - - - - - - - - - - - - - - - - - - - - - - - -
V: 1
   B | G/G/G BG cGBG | AD D/D/D =FGAF | G/G/G BG cGBG | Agdg BG G :|
|: g | dgBg AA/A/ a2 | dgBg dgBg | (a/g/f/e/ g)B A/A/A a2 | egdg BG G :|
% - - - - - - - - - - - - - - - - - - - - - - - - -
V: 2 clef=bass middle=d
z | g2g2 g2g2 | d2d2 =f2f2 | g2g2 g2g2 | d2d2 G2G :|\
|: z |
g2g2 a2a2 | g2g2 g2g2 | g2g2 a2a2 | g2d2 G2G :|
% - - - - - - - - - - - - - - - - - - - - - - - - -

%%sep 1 1 500
%%sep 1 1 500
